X: 20278
T: Joel And Kelly's
R: reel
M: 4/4
K: Edorian
|E2 BB E2 BB|E2B2 A2F2|D2 FF A2 DD|F2A2 F2B2|
E2 BB E2 BB|E2B2 e3 d|BABc d2A2|F2E2 E2 z2:|
e3 f g2f2|e2d2 BABc|d3 e dBAB|d3 e d2 B2|
e3 f g2f2|e2d2 BABc|dedB ABGA|F2E2 E2 z2:|
E2 .B2 E2 .B2|E2 .B2 A2F2|D2 FF A2 DD|F2 .A2 F2 .B2|
E2 .B2 E2 .B2|E2 .B2 e3 d|BABc d2A2|F2E2 E2 z2:|

